X:12
T:Färsker soppa
T:Mazurka (SmM VII:12)
R:Mazurka
O:Markaryd, Småland
O:Knäred, Halland
B:Småländsk Musiktradition
N:A Ysenius samling, ca 1920
Q:1/4=150
M:3/4
L:1/8
K:G
d>e d2c2|B>A B2 G2|AB cA FA|GF GB d2|
d>e d2c2|B>A B2 G2|AB cA FA|G2 G2 z2:|
|:D>G B2 B2|A>B cB cA|F>G A2 A2|G>B dB dB|
G>A B2 B2|A>B cB cA|F>G A2 AF|G2 G2 z2:|

